src/16/actions/distribute-graph.svg

<svg xmlns="http://www.w3.org/2000/svg" width="16" height="16" viewBox="0 0 16 16">
 <defs>
  <style id="current-color-scheme" type="text/css">
   .ColorScheme-Text { color:#565656; } .ColorScheme-Highlight { color:#5294e2; }
  </style>
 </defs>
 <path style="fill:currentColor" class="ColorScheme-Text" d="M 7.4921875 -0.00390625 L 7.5 0 A 1.5 1.5 0 0 0 6 1.5 A 1.5 1.5 0 0 0 6.1132812 2.0703125 L 2.2207031 5.1855469 A 1.5 1.5 0 0 0 1.5 5 A 1.5 1.5 0 0 0 0 6.5 A 1.5 1.5 0 0 0 1 7.9121094 L 1 13.087891 A 1.5 1.5 0 0 0 0 14.5 A 1.5 1.5 0 0 0 1.5 16 A 1.5 1.5 0 0 0 2.9121094 15 L 7.0878906 15 A 1.5 1.5 0 0 0 8.5 16 A 1.5 1.5 0 0 0 10 14.5 A 1.5 1.5 0 0 0 9.8144531 13.783203 L 12.931641 9.8867188 A 1.5 1.5 0 0 0 13.5 10 A 1.5 1.5 0 0 0 15 8.5 A 1.5 1.5 0 0 0 13.5 7 A 1.5 1.5 0 0 0 12.916016 7.1191406 L 8.8222656 2.2070312 A 1.5 1.5 0 0 0 8.9921875 1.4960938 A 1.5 1.5 0 0 0 7.4921875 -0.00390625 z M 6.78125 2.8164062 A 1.5 1.5 0 0 0 7.5 3 A 1.5 1.5 0 0 0 8.0820312 2.8808594 L 12.177734 7.7949219 A 1.5 1.5 0 0 0 11.998047 8.5058594 A 1.5 1.5 0 0 0 12.183594 9.2246094 L 9.0683594 13.119141 A 1.5 1.5 0 0 0 8.4980469 13.007812 A 1.5 1.5 0 0 0 7.0859375 14.007812 L 2.9101562 14.007812 A 1.5 1.5 0 0 0 2 13.097656 L 2 7.921875 A 1.5 1.5 0 0 0 3 6.5097656 A 1.5 1.5 0 0 0 2.8867188 5.9414062 L 6.78125 2.8261719 L 6.78125 2.8164062 z"/>
</svg>

<svg xmlns="http://www.w3.org/2000/svg" width="16" height="16"><defs><style id="current-color-scheme" type="text/css"></style></defs><path d="M7.492-.004L7.5 0A1.5 1.5 0 0 0 6 1.5a1.5 1.5 0 0 0 .113.57L2.221 5.186A1.5 1.5 0 0 0 1.5 5 1.5 1.5 0 0 0 0 6.5a1.5 1.5 0 0 0 1 1.412v5.176A1.5 1.5 0 0 0 0 14.5 1.5 1.5 0 0 0 1.5 16a1.5 1.5 0 0 0 1.412-1h4.176A1.5 1.5 0 0 0 8.5 16a1.5 1.5 0 0 0 1.5-1.5 1.5 1.5 0 0 0-.186-.717l3.118-3.896A1.5 1.5 0 0 0 13.5 10 1.5 1.5 0 0 0 15 8.5 1.5 1.5 0 0 0 13.5 7a1.5 1.5 0 0 0-.584.12L8.822 2.206a1.5 1.5 0 0 0 .17-.71 1.5 1.5 0 0 0-1.5-1.5zm-.71 2.82A1.5 1.5 0 0 0 7.5 3a1.5 1.5 0 0 0 .582-.12l4.096 4.915a1.5 1.5 0 0 0-.18.71 1.5 1.5 0 0 0 .186.72l-3.116 3.894a1.5 1.5 0 0 0-.57-.111 1.5 1.5 0 0 0-1.412 1H2.91a1.5 1.5 0 0 0-.91-.91V7.922A1.5 1.5 0 0 0 3 6.51a1.5 1.5 0 0 0-.113-.569L6.78 2.826v-.01z" fill="currentColor" color="#565656"/></svg>
